openmetadata-ui/src/main/resources/ui/src/assets/svg/ic-settings.svg

<svg width="20" height="20" viewBox="0 0 20 20" fill="none" xmlns="http://www.w3.org/2000/svg">
<g clip-path="url(#clip0)">
<path d="M14.4504 10.9567L13.1176 12.2896L11.7833 10.9553L14.9846 7.75398C15.3365 7.85307 15.6958 7.90152 16.0531 7.90148C17.081 7.9014 18.0903 7.49977 18.8443 6.74578C19.9533 5.6367 20.3001 3.97578 19.7276 2.51441L19.4012 1.68093L17.3059 3.77627L16.4598 3.54955L16.2331 2.7035L18.3284 0.608194L17.495 0.281758C16.0338 -0.290608 14.3728 0.0560913 13.2637 1.16518C12.2476 2.18118 11.8714 3.66024 12.2555 5.02478L9.05415 8.22612L4.7552 3.92717L5.89576 2.78666L2.36064 0.000221252L0 2.36082L2.7864 5.89598L3.92699 4.75542L8.22594 9.05437L5.39988 11.8804C3.93218 11.4207 2.33093 11.8048 1.22621 12.9095C0.441729 13.694 0.00968258 14.737 0.00968258 15.8464C0.00968258 16.9558 0.441729 17.9988 1.22621 18.7833C2.03592 19.593 3.09948 19.9978 4.16312 19.9978C5.22672 19.9978 6.29032 19.593 7.10003 18.7833C8.20474 17.6786 8.58884 16.0773 8.12908 14.6096L10.9551 11.7836L12.2894 13.1179L10.9565 14.4507L15.7819 19.2761C16.2486 19.7428 16.869 19.9998 17.5289 19.9998C18.1888 19.9998 18.8093 19.7428 19.2759 19.2761C20.2392 18.3128 20.2392 16.7455 19.2759 15.7822L14.4504 10.9567ZM1.56417 2.45316L2.45297 1.56435L4.13544 2.89051L2.89033 4.13562L1.56417 2.45316ZM13.6106 5.32607L13.4709 4.96926C13.0682 3.94142 13.312 2.77331 14.0919 1.99335C14.633 1.4523 15.3606 1.16943 16.0991 1.18107L14.9268 2.35348L15.5035 4.50586L17.6559 5.08264L18.8283 3.91027C18.8401 4.64856 18.5571 5.37648 18.016 5.91753C17.2361 6.69741 16.068 6.94123 15.0401 6.5385L14.6833 6.39877L10.9551 10.127L9.88233 9.0543L13.6106 5.32607ZM6.75833 14.3238L6.91129 14.6869C7.38473 15.8103 7.13368 17.0931 6.27178 17.955C5.69031 18.5365 4.92683 18.8271 4.16308 18.8271C3.39952 18.827 2.63569 18.5364 2.05439 17.955C1.49116 17.3918 1.18092 16.6429 1.18092 15.8464C1.18092 15.0498 1.49112 14.3009 2.05439 13.7377C2.62714 13.1649 3.38551 12.862 4.15968 12.862C4.55058 12.862 4.94561 12.9393 5.32253 13.0981L5.68555 13.2511L9.05411 9.88255L10.1269 10.9553L6.75833 14.3238ZM14.4504 12.6131L15.5232 13.6859L13.6857 15.5234L12.613 14.4507L14.4504 12.6131ZM18.4477 18.4479C18.2023 18.6933 17.876 18.8285 17.5289 18.8285C17.1819 18.8285 16.8556 18.6933 16.6102 18.4479L14.5139 16.3516L16.3514 14.5141L18.4477 16.6104C18.9543 17.117 18.9543 17.9413 18.4477 18.4479Z" fill="#76746F"/>
<path d="M4.16323 13.9165C3.64776 13.9165 3.16312 14.1173 2.79866 14.4818C2.43416 14.8463 2.2334 15.3309 2.2334 15.8464C2.2334 16.3618 2.43416 16.8464 2.79862 17.2109C3.16312 17.5754 3.64776 17.7762 4.16323 17.7762C4.67871 17.7762 5.16331 17.5754 5.52785 17.2109C6.28024 16.4585 6.28024 15.2342 5.52785 14.4818C5.16335 14.1173 4.67871 13.9165 4.16323 13.9165ZM4.69964 16.3827C4.55635 16.526 4.36587 16.6049 4.16327 16.6049C3.96064 16.6049 3.77019 16.526 3.62691 16.3827C3.48366 16.2394 3.40475 16.0489 3.40475 15.8464C3.40475 15.6438 3.48366 15.4533 3.62695 15.31C3.77019 15.1667 3.96068 15.0878 4.16331 15.0878C4.3659 15.0878 4.55639 15.1667 4.69968 15.31C4.99535 15.6057 4.99535 16.087 4.69964 16.3827Z" fill="#76746F"/>
</g>
<defs>
<clipPath id="clip0">
<rect width="20" height="20" fill="white"/>
</clipPath>
</defs>
</svg>

<svg xmlns="http://www.w3.org/2000/svg" width="20" height="20" fill="none"><g fill="#76746F" clip-path="url(#a)"><path d="m14.45 10.957-1.332 1.333-1.335-1.335 3.202-3.201a3.946 3.946 0 0 0 4.743-5.24l-.327-.833-2.095 2.095-.846-.226-.227-.846L18.328.607l-.833-.326a3.947 3.947 0 0 0-5.24 4.743l-3.2 3.201-4.3-4.299 1.14-1.14L2.362 0 0 2.36l2.786 3.536 1.141-1.14 4.299 4.298L5.4 11.88a4.137 4.137 0 0 0-4.174 1.03A4.126 4.126 0 0 0 .01 15.845c0 1.11.432 2.153 1.216 2.937a4.14 4.14 0 0 0 2.937 1.215A4.14 4.14 0 0 0 7.1 18.783a4.137 4.137 0 0 0 1.03-4.173l2.825-2.826 1.334 1.334-1.332 1.333 4.825 4.825a2.454 2.454 0 0 0 1.747.724 2.473 2.473 0 0 0 1.747-4.218l-4.826-4.825ZM1.564 2.453l.889-.889 1.682 1.327L2.89 4.136 1.564 2.453Zm12.047 2.873-.14-.357a2.776 2.776 0 0 1 2.628-3.788l-1.172 1.172.577 2.153 2.152.577 1.172-1.173a2.775 2.775 0 0 1-3.788 2.628l-.357-.14-3.728 3.729-1.073-1.073 3.729-3.728Zm-6.853 8.998.153.363a2.972 2.972 0 0 1-.64 3.268 2.972 2.972 0 0 1-2.108.872c-.763 0-1.527-.29-2.109-.872a2.963 2.963 0 0 1-.873-2.109c0-.796.31-1.545.873-2.108a2.972 2.972 0 0 1 3.269-.64l.363.153 3.368-3.368 1.073 1.072-3.369 3.369Zm7.692-1.71 1.073 1.072-1.837 1.837-1.073-1.072 1.837-1.838Zm3.998 5.834a1.29 1.29 0 0 1-.92.38 1.29 1.29 0 0 1-.918-.38l-2.096-2.096 1.837-1.838 2.097 2.096a1.3 1.3 0 0 1 0 1.838Z"/><path d="M4.163 13.916c-.515 0-1 .201-1.364.566-.365.364-.566.849-.566 1.364 0 .516.201 1 .566 1.365.364.364.849.565 1.364.565a1.932 1.932 0 0 0 0-3.86Zm.537 2.467a.754.754 0 0 1-.537.222.753.753 0 0 1-.536-.222.754.754 0 0 1-.222-.537c0-.202.079-.393.222-.536a.753.753 0 0 1 .536-.222.76.76 0 0 1 .536 1.295Z"/></g><defs><clipPath id="a"><path fill="#fff" d="M0 0h20v20H0z"/></clipPath></defs></svg>
